web/icons/gps/time.svg

<svg width="256" height="256" viewBox="0 0 256 256" fill="none" xmlns="http://www.w3.org/2000/svg">
<path fill-rule="evenodd" clip-rule="evenodd" d="M0 50C0 22.386 22.386 0 50 0H206C233.614 0 256 22.386 256 50V206C256 233.614 233.614 256 206 256H50C22.386 256 0 233.614 0 206V50ZM59.5839 167.5C81.3992 205.285 129.715 218.231 167.5 196.416C205.285 174.601 218.231 126.285 196.416 88.4999C174.601 50.7148 126.285 37.7687 88.4999 59.5839C50.7148 81.3992 37.7687 129.715 59.5839 167.5ZM42.2634 177.5C69.6015 224.851 130.149 241.075 177.5 213.736C224.851 186.398 241.075 125.851 213.736 78.4999C210.836 73.476 207.561 68.8024 203.969 64.4941C204.088 64.3992 204.204 64.2965 204.314 64.1859L209.724 58.7764C211.286 57.2143 211.286 54.6817 209.724 53.1196L201.238 44.6343C199.676 43.0722 197.144 43.0722 195.581 44.6343L190.172 50.0438C190.007 50.2086 189.86 50.3841 189.73 50.5682C174.774 38.652 156.742 31.4174 138 29.499V24C138 21.7909 136.209 20 134 20H122C119.791 20 118 21.7909 118 24V29.4817C104.483 30.8458 91.0292 35.0296 78.4999 42.2634C31.149 69.6015 14.9253 130.149 42.2634 177.5ZM180.828 97.4999C178.066 92.717 171.95 91.0783 167.167 93.8397L123 119.34C118.217 122.101 116.578 128.217 119.34 133C122.101 137.783 128.217 139.422 133 136.66L177.167 111.16C181.95 108.399 183.589 102.283 180.828 97.4999Z" fill="#F27878"/>
</svg>

<svg width="256" height="256" fill="none" xmlns="http://www.w3.org/2000/svg"><path fill-rule="evenodd" clip-rule="evenodd" d="M0 50C0 22.386 22.386 0 50 0h156c27.614 0 50 22.386 50 50v156c0 27.614-22.386 50-50 50H50c-27.614 0-50-22.386-50-50V50Zm59.584 117.5c21.815 37.785 70.131 50.731 107.916 28.916s50.731-70.131 28.916-107.916S126.285 37.769 88.5 59.584 37.769 129.715 59.584 167.5Zm-17.32 10c27.337 47.351 87.885 63.575 135.236 36.236 47.351-27.338 63.575-87.885 36.236-135.236a99.656 99.656 0 0 0-9.767-14.006c.119-.095.235-.198.345-.308l5.41-5.41a4 4 0 0 0 0-5.656l-8.486-8.486a4 4 0 0 0-5.657 0l-5.409 5.41c-.165.165-.312.34-.442.524C174.774 38.652 156.742 31.418 138 29.5V24a4 4 0 0 0-4-4h-12a4 4 0 0 0-4 4v5.482c-13.517 1.364-26.97 5.548-39.5 12.781C31.149 69.602 14.925 130.15 42.263 177.5Zm138.564-80c-2.762-4.783-8.878-6.422-13.661-3.66L123 119.34c-4.783 2.761-6.422 8.877-3.66 13.66 2.761 4.783 8.877 6.422 13.66 3.66l44.167-25.5c4.783-2.761 6.422-8.877 3.661-13.66Z" fill="#F27878"/></svg>
